!!!!SEGMENT: Ano3008-Ognun_si_duol_damore.krn
!!!id: Ano3008
!!!jrpid: Ano3236
!!!AGN: Madrigal
!!!voices: 4
!!!COM: Anonymous
!!!OTL: Ognun si duol' d'amore
**kern	**kern	**kern	**kern
*part4	*part3	*part2	*part1
*staff4	*staff3	*staff2	*staff1
*I"Bassus	*I"Tenor	*I"Altus	*I"Superius
*I'B	*I'T	*I'A	*I'S
*clefF4	*clefGv2	*clefG2	*clefG2
*k[]	*k[]	*k[]	*k[]
*C:	*C:	*C:	*C:
*M2/1	*M2/1	*M2/1	*M2/1
*met(C)	*met(C)	*met(C)	*met(C)
0r	0r	1d	1r
.	.	2B	1dd
.	.	2G	.
=1	=1	=1	=1
0r	0r	4g	2b
.	.	4a	.
.	.	4b	2g
.	.	4g	.
.	.	2a	2cc
.	.	[2g	2b
=2	=2	=2	=2
0r	1d	4g]	1a
.	.	8f#iL	.
.	.	8eJ	.
.	.	2f#i	.
.	2B	1g	[1g
.	2G	.	.
=3	=3	=3	=3
2r	2c	2r	1g]
2G	2B	2d	.
2F	1A	2d	1r
2D	.	[2d	.
=4	=4	=4	=4
1E	1G	4d]	2r
.	.	8c#iL	.
.	.	8BJ	.
.	.	2c#i	2.g
1D	2r	2d	.
.	.	.	4f
.	2d	2f	2f
=5	=5	=5	=5
1r	2c	2e	2g
.	2A	1f	2a
2r	1B	.	2.d
2G	.	[2d	.
.	.	.	4e
=6	=6	=6	=6
2F	2A	4d]	4f
.	.	4e	4g
2D	2d	2f	2.a
1E	2B	2e	.
.	.	.	4g
.	2G	2c	[2g
=7	=7	=7	=7
1D	1A	1d	2g]
.	.	.	2f#i
2r	1G	2r	1g
2G	.	2d	.
=8	=8	=8	=8
2E	2r	2e	2r
2C	2c	2e	2g
[1G	2B	2.d	2g
.	2G	.	2g
.	.	4c	.
=9	=9	=9	=9
2G]	1.d	2B	2g
2G	.	2B	2g
2F	.	1A	1a
2D	2d	.	.
=10	=10	=10	=10
2.F	2c	1f	2a
.	2A	.	1a
4G	.	.	.
2A	2c	2e	.
2B-i	2d	2d	2g
=11	=11	=11	=11
1A	2e	1c	1a
.	2f	.	.
[1G	1g	[1d	1b
=12	=12	=12	=12
1G]	2r	1d]	2r
.	2g	.	2b
1r	2a	1r	2cc
.	2a	.	2cc
=13	=13	=13	=13
1r	2f	2r	2a
.	2d	2a	2.dd
1A	1e	2a	.
.	.	.	8cc#iL
.	.	.	8bJ
.	.	2a	2cc#i
=14	=14	=14	=14
2d	2d	2f	1dd
2d	2a	2d	.
2c	2a	1e	1r
2A	2a	.	.
=15	=15	=15	=15
1B-X	2f	1d	1r
.	2d	.	.
1A	1e	2r	2r
.	.	2c	2a
=16	=16	=16	=16
0r	1d	2f	2a
.	.	2f	2a
.	1r	2e	2g
.	.	[2d	2f
=17	=17	=17	=17
1r	1A	4d]	1e
.	.	8c#iL	.
.	.	8BJ	.
.	.	2c#i	.
1D	2f	1d	1d
.	2f	.	.
=18	=18	=18	=18
2G	2e	1r	0r
2G	2d	.	.
2F	4d	2r	.
.	4c#i	.	.
2E	4c#i	2e	.
.	4B	.	.
=19	=19	=19	=19
4D	1d	2f	1a
4E	.	.	.
4F	.	2f	.
4G	.	.	.
4A	1r	2e	2a
4B	.	.	.
4c	.	2A	2a
4d	.	.	.
=20	=20	=20	=20
2e	0r	2c	2g
2.d	.	2d	2f
.	.	1A	1e
8c#iL	.	.	.
8BJ	.	.	.
2c#i	.	.	.
=21	=21	=21	=21
1d	2r	2r	1d
.	2d	2f	.
1D	1d	1f	1a
=22	=22	=22	=22
1G	1d	1g	1b
1A	2.c	2e	1cc
.	.	2f	.
.	4d	.	.
=23	=23	=23	=23
2G	2e	2g	2b
2F	1f	2.a	2a
1B-i	.	.	1dd
.	.	8gL	.
.	.	8fJ	.
.	4e	2g	.
.	4d	.	.
=24	=24	=24	=24
1A	2f	1a	1cc
.	2e	.	.
2r	2r	2r	2r
2A	2e	2a	2cc
=25	=25	=25	=25
2A	2.f	2a	2cc
2F	.	2a	2cc
.	4e	.	.
2G	2d	2g	2b
2A	2c	2e	[2a
=26	=26	=26	=26
0D	1d	4f	4a]
.	.	4e	4g
.	.	4d	4f
.	.	4c	4e
.	1A	1d	1f
=27	=27	=27	=27
2r	2r	2c	2e
2D	2A	2d	2f
2G	2B	2d	2g
2D	2A	2d	2f
=28	=28	=28	=28
1G	1B	1d	1g
1D	2A	1d	1f
.	2a	.	.
=29	=29	=29	=29
2r	2g	1r	0r
2d	2f	.	.
2c	2e	2r	.
2B	2d	2g	.
=30	=30	=30	=30
2A	2c	2f	0r
2c	2c	2e	.
2B	2G	2d	.
2A	2F	2f	.
=31	=31	=31	=31
2G	1G	2e	0r
2B	.	2d	.
2A	2A	2c	.
[2G	2B	2B	.
=32	=32	=32	=32
4G]	1c	1A	1r
8F#iL	.	.	.
8EJ	.	.	.
2F#i	.	.	.
1G	1B	2G	2r
.	.	2B	2dd
=33	=33	=33	=33
2r	2r	2c	2cc
2G	2g	2d	2b
2A	2f	2c	2a
2A	2e	2c	2cc
=34	=34	=34	=34
2D	2d	2.d	2b
2D	2f	.	2a
.	.	4c	.
2G	2e	2B	2g
2G	2d	2B	2b
=35	=35	=35	=35
1C	2c	1e	2a
.	2B	.	2.g
1D	1A	1d	.
.	.	.	8f#iL
.	.	.	8eJ
.	.	.	2f#i
=36	=36	=36	=36
1E	0G	1B	[0gl
[1C	.	1c	.
=37	=37	=37	=37
2C]	0c	0e	0g_
2D	.	.	.
2E	.	.	.
2F	.	.	.
=38	=38	=38	=38
00Gl	00Bl	00dl	00g]
==	==	==	==
*-	*-	*-	*-
!!!system-decoration: [*]
!!!RDF**kern: i = editorial accidental
!!!RDF**kern: l = terminal long
!!!ENC: Benjamin Ory
!!!END: 2024/5/10
!!!EED: Benjamin Ory
!!!EEV: 2024/05/10
!!!YEC: Copyright 2024 Benjamin Ory, All Rights Reserved
!!!ONB: Translated from MusicXML on 2024/05/10